src/images/global/icons/utility/store/store.svg

<?xml version="1.0" encoding="UTF-8"?>
<svg width="48px" height="48px" viewBox="0 0 48 48" version="1.1" xmlns="http://www.w3.org/2000/svg" xmlns:xlink="http://www.w3.org/1999/xlink">
    <!-- Generator: Sketch 46.2 (44496) - http://www.bohemiancoding.com/sketch -->
    <title>icon/Utility/Store/store</title>
    <desc>Created with Sketch.</desc>
    <defs>
        <path d="M25.7833333,0 L2.21666667,0 C0.890866667,0 0,0.914570347 0,2.27564649 L0,6.347856 C0,7.3456671 0.564783333,8.15268321 1.4,8.47307028 L1.4,22.7564649 C1.4,24.0314258 2.27231667,24.7925697 3.73333333,24.7925697 L5.13333333,24.7925697 L5.13333333,12.7906903 C5.13333333,11.4654256 6.00623333,10.5398364 7.2562,10.5398364 L20.5996,10.5398364 C21.9345,10.5398364 22.8666667,11.434405 22.8666667,12.7153544 L22.8666667,24.7925697 L24.6166667,24.7925697 C26.04385,24.7925697 26.6,24.2385096 26.6,22.8163503 L26.6,8.47307028 C27.4352167,8.15268321 28,7.3456671 28,6.347856 L28,2.15587562 C28,0.826059676 27.1506667,0 25.7833333,0 L25.7833333,0 Z M26.6,6.347856 C26.6,6.84933662 26.2718167,7.18625208 25.7833333,7.18625208 L2.21666667,7.18625208 C1.72818333,7.18625208 1.4,6.84933662 1.4,6.347856 L1.4,2.27564649 C1.4,1.7115257 1.66716667,1.43725042 2.21666667,1.43725042 L25.7833333,1.43725042 C26.5368833,1.43725042 26.6,1.79225127 26.6,2.15587562 L26.6,6.347856 Z M6.46666667,12.5563364 C6.46666667,12.2159752 6.56382184,11.6449948 7.21445977,11.6449948 L13.4666667,11.6449948 L13.4666667,26 L6.46666667,26 L6.46666667,12.5563364 Z M20.9030345,11.6449948 C21.3122931,11.6449948 21.8,11.7884107 21.8,12.4719505 L21.8,26 L14.8,26 L14.8,11.6449948 L20.9030345,11.6449948 Z" id="path-1"></path>
    </defs>
    <g id="Symbols" stroke="none" stroke-width="1" fill="none" fill-rule="evenodd">
        <g id="icon/Utility/Store/store">
            <g id="Icon" transform="translate(10.000000, 11.000000)">
                <mask id="mask-2" fill="white">
                    <use xlink:href="#path-1"></use>
                </mask>
                <use id="Mask" fill="#384048" xlink:href="#path-1"></use>
                <g id="Color/Grayscale/Night-Sky" mask="url(#mask-2)" fill="#111111">
                    <g transform="translate(-10.000000, -11.000000)" id="Swatch">
                        <rect x="0" y="0" width="48" height="48"></rect>
                    </g>
                </g>
            </g>
        </g>
    </g>
</svg>

<?xml version="1.0" encoding="utf-8"?>
<!-- Generator: Adobe Illustrator 21.0.2, SVG Export Plug-In . SVG Version: 6.00 Build 0)  -->
<svg version="1.1" id="icon_x2F_Utility_x2F_Store_x2F_store-Layer_1" xmlns="http://www.w3.org/2000/svg" xmlns:xlink="http://www.w3.org/1999/xlink" x="0px" y="0px"
	 viewBox="0 0 48 48" style="enable-background:new 0 0 48 48;" xml:space="preserve">
<title>icon/Utility/Store/store</title>
<desc>Created with Sketch.</desc>
<g id="icon_x2F_Utility_x2F_Store_x2F_store-Symbols">
	<g id="icon_x2F_Utility_x2F_Store_x2F_store">
		<g id="icon_x2F_Utility_x2F_Store_x2F_store-Icon" transform="translate(10.000000, 11.000000)">
			<g id="icon_x2F_Utility_x2F_Store_x2F_store-Mask">
				<path id="icon_x2F_Utility_x2F_Store_x2F_store-path-1_1_" style="fill:#384048;" d="M25.8,0H2.2C0.9,0,0,0.9,0,2.3v4.1c0,1,0.6,1.8,1.4,2.1v14.3c0,1.3,0.9,2,2.3,2
					h1.4v-12c0-1.3,0.9-2.3,2.1-2.3h13.3c1.3,0,2.3,0.9,2.3,2.2v12.1h1.8c1.4,0,2-0.6,2-2V8.5C27.4,8.2,28,7.3,28,6.3V2.2
					C28,0.8,27.2,0,25.8,0L25.8,0z M26.6,6.3c0,0.5-0.3,0.8-0.8,0.8H2.2c-0.5,0-0.8-0.3-0.8-0.8V2.3c0-0.6,0.3-0.8,0.8-0.8h23.6
					c0.8,0,0.8,0.4,0.8,0.7V6.3z M6.5,12.6c0-0.3,0.1-0.9,0.7-0.9h6.3V26h-7V12.6z M20.9,11.6c0.4,0,0.9,0.1,0.9,0.8V26h-7V11.6
					H20.9z"/>
			</g>
			<defs>
				<filter id="icon_x2F_Utility_x2F_Store_x2F_store-Adobe_OpacityMaskFilter" filterUnits="userSpaceOnUse" x="-10" y="-11" width="48" height="48">
					<feColorMatrix  type="matrix" values="1 0 0 0 0  0 1 0 0 0  0 0 1 0 0  0 0 0 1 0"/>
				</filter>
			</defs>
			<mask maskUnits="userSpaceOnUse" x="-10" y="-11" width="48" height="48" id="icon_x2F_Utility_x2F_Store_x2F_store-mask-2">
				<g style="filter:url(#icon_x2F_Utility_x2F_Store_x2F_store-Adobe_OpacityMaskFilter);">
					<path id="icon_x2F_Utility_x2F_Store_x2F_store-path-1" style="fill:#FFFFFF;" d="M25.8,0H2.2C0.9,0,0,0.9,0,2.3v4.1c0,1,0.6,1.8,1.4,2.1v14.3c0,1.3,0.9,2,2.3,2h1.4
						v-12c0-1.3,0.9-2.3,2.1-2.3h13.3c1.3,0,2.3,0.9,2.3,2.2v12.1h1.8c1.4,0,2-0.6,2-2V8.5C27.4,8.2,28,7.3,28,6.3V2.2
						C28,0.8,27.2,0,25.8,0L25.8,0z M26.6,6.3c0,0.5-0.3,0.8-0.8,0.8H2.2c-0.5,0-0.8-0.3-0.8-0.8V2.3c0-0.6,0.3-0.8,0.8-0.8h23.6
						c0.8,0,0.8,0.4,0.8,0.7V6.3z M6.5,12.6c0-0.3,0.1-0.9,0.7-0.9h6.3V26h-7V12.6z M20.9,11.6c0.4,0,0.9,0.1,0.9,0.8V26h-7V11.6
						H20.9z"/>
				</g>
			</mask>
			<g id="icon_x2F_Utility_x2F_Store_x2F_store-Color_x2F_Grayscale_x2F_Night-Sky" style="mask:url(#icon_x2F_Utility_x2F_Store_x2F_store-mask-2);">
				<g id="icon_x2F_Utility_x2F_Store_x2F_store-Swatch" transform="translate(-10.000000, -11.000000)">
					<rect style="fill:#111111;" width="48" height="48"/>
				</g>
			</g>
		</g>
	</g>
</g>
</svg>
